X: 01027
T: CORY'S JIG
C: Bob McQuillen Mar.'76
B: Bob's Note Book 1 #27
R: jig
Z: 2019 John Chambers <jc:trillian.mit.edu>
M: 6/8
L: 1/8
K: D
ag \
| fgf gfe | fdd dcB | ABc dcd | egf eag |\
| fgf efg | fdd dcB | Add cBc | edd d :|
|: fg \
| afa afa | bag afe | def fga | gfg efg |\
| afa afa | bag afe | def eag | fdd d :|
%%begintext align
%% For Cory Crawford
%%endtext

%%sep 1 1 500

%%sep 1 1 500

